src/images/logos/github-logo.svg

<svg width="24px" height="24px" viewBox="0 0 20 20">
    <path d="M10.0000828,0 C15.5227489,0 20,4.59039482 20,10.2531721 C20,14.781764 17.138315,18.6237323 13.167129,19.9810195 C12.660236,20.0817039 12.4802318,19.7619927 12.4802318,19.489143 L12.4913256,17.1763456 L12.4913256,17.1763456 L12.4918236,16.6754123 C12.4918236,15.7188253 12.1722211,15.0948536 11.8135376,14.7766704 C14.0403229,14.522837 16.3797143,13.6557284 16.3797143,9.71766004 C16.3797143,8.59824619 15.9917201,7.68359695 15.3505278,6.96556249 L15.3899356,6.8584141 C15.5166273,6.48367571 15.7395156,5.51581221 15.2524943,4.25217665 L15.1965261,4.24013773 C14.9805388,4.20569054 14.1311438,4.17313708 12.505237,5.30316584 C11.706065,5.07598918 10.8499276,4.96206127 10.0000828,4.95815614 C9.15023805,4.96206127 8.29476299,5.07598918 7.49708135,5.30316584 C5.58608984,3.97661033 4.74634651,4.25217665 4.74634651,4.25217665 C4.20335334,5.66447521 4.54564272,6.70731457 4.64947216,6.96556249 C4.00977023,7.68359695 3.61912647,8.59824619 3.61912647,9.71766004 C3.61912647,13.6463901 5.95404678,14.5255536 8.17520182,14.7848202 C7.88921548,15.0408609 7.63005589,15.4931768 7.54030221,16.1558603 L7.39370107,16.2187049 C6.77706215,16.4649005 5.56048459,16.7275614 4.73555925,15.4755454 L4.57484758,15.2122137 C4.42754209,14.9853872 3.98843755,14.4049025 3.28002929,14.2707167 L3.09732975,14.2469311 C3.09732975,14.2469311 2.20463007,14.2349695 2.92103743,14.790848 L3.02893811,14.8702237 C3.02893811,14.8702237 3.61356875,15.1513092 4.06174126,16.1809126 L4.18529007,16.4816163 C4.36754881,16.8687621 5.14782936,18.106475 7.50834196,17.5802138 L7.52192093,19.489143 L7.52192093,19.489143 C7.52192093,19.7599552 7.33843925,20.0772894 6.83866694,19.9823778 C2.86532809,18.6266187 0,14.7832921 0,10.2531721 C0,4.59039482 4.47791348,0 10.0000828,0 Z M6.47435314,16.5886739 C6.59325191,16.5853758 6.69062306,16.6796075 6.69062306,16.7962192 C6.69343821,16.9135376 6.59739184,17.0108318 6.47849307,17.012952 C6.3589319,17.0167213 6.26222314,16.9217829 6.26089836,16.8063491 C6.26089836,16.6878528 6.35479197,16.5915009 6.47435314,16.5886739 Z M7.45220451,16.6475089 C7.46644587,16.7597425 7.38381288,16.8749783 7.26574208,16.9056925 C7.14965846,16.935252 7.04218588,16.8659719 7.02744773,16.754662 C7.01304078,16.6396571 7.09716415,16.5244214 7.21308218,16.4946309 C7.33131857,16.4659952 7.43713517,16.5334278 7.45220451,16.6475089 Z M5.70863175,16.47132 C5.82156903,16.5178016 5.89575657,16.641903 5.87224177,16.7504354 C5.84806458,16.8571626 5.73562409,16.905675 5.62235562,16.8603216 C5.50925274,16.8136143 5.4352308,16.6886103 5.45808321,16.5807549 C5.48159801,16.4733507 5.59453529,16.4228076 5.70863175,16.47132 Z M5.10276488,16.0934444 C5.19872509,16.1866663 5.22802591,16.3201694 5.16338096,16.3894145 C5.10276488,16.4594268 4.97365812,16.440629 4.87916295,16.3451053 C4.78247023,16.2516915 4.75555009,16.1191475 4.81634931,16.0491352 C4.87769791,15.978931 5.0075372,15.9986879 5.10276488,16.0934444 Z M4.67195032,15.5442034 C4.75192517,15.6510613 4.75192517,15.7770987 4.66999972,15.8285705 C4.58980814,15.8788681 4.45868407,15.8317019 4.37762556,15.7266055 C4.29743398,15.621509 4.29743398,15.4954716 4.37935943,15.4449783 C4.46063468,15.3944851 4.58980814,15.4398898 4.67195032,15.5442034 Z M4.26076052,14.9982881 C4.35307416,15.0979084 4.37106947,15.2286309 4.30072415,15.2917705 C4.23341699,15.3542086 4.10184085,15.3252111 4.01256539,15.2265262 C3.92025175,15.1280752 3.90295755,14.9964173 3.97119953,14.9330439 C4.04061003,14.8706058 4.16821318,14.8998371 4.26076052,14.9982881 Z M3.78882209,14.5838062 C3.89817837,14.6471824 3.96045416,14.7800472 3.92259048,14.8768808 C3.88945976,14.9733928 3.77188308,15.0023464 3.66476872,14.9360748 C3.55566154,14.8726986 3.49438216,14.7411207 3.52975481,14.644287 C3.56213822,14.5448797 3.67996401,14.5172129 3.78882209,14.5838062 Z" fill="#161514" stroke-width="0"></path>
</svg>

<svg viewBox="0 0 20 20">
  <path
    d="M10 0c5.523 0 10 4.59 10 10.253 0 4.529-2.862 8.37-6.833 9.728-.507.1-.687-.219-.687-.492l.011-2.313v-.5c0-.957-.319-1.581-.677-1.9 2.226-.253 4.566-1.12 4.566-5.058 0-1.12-.388-2.034-1.03-2.752l.04-.108c.127-.374.35-1.342-.138-2.606l-.055-.012c-.216-.034-1.066-.067-2.692 1.063A9.388 9.388 0 0010 4.958a9.363 9.363 0 00-2.503.345c-1.91-1.326-2.75-1.05-2.75-1.05-.544 1.411-.201 2.454-.098 2.713-.64.718-1.03 1.632-1.03 2.752 0 3.928 2.335 4.808 4.556 5.067-.286.256-.545.708-.635 1.37l-.146.064c-.617.246-1.834.509-2.658-.743l-.161-.264c-.147-.227-.587-.807-1.295-.941l-.183-.024s-.892-.012-.176.544l.108.08s.585.28 1.033 1.31l.123.3c.183.388.963 1.625 3.323 1.1l.014 1.908c0 .271-.184.588-.683.493C2.865 18.627 0 14.783 0 10.253 0 4.59 4.478 0 10 0zM6.474 16.589a.209.209 0 01.217.207.214.214 0 01-.213.217.21.21 0 01-.217-.207c0-.118.094-.214.213-.217zm.978.059c.014.112-.068.227-.186.258-.116.03-.224-.04-.239-.151a.248.248 0 01.186-.26c.118-.029.224.038.24.153zM5.71 16.47c.113.047.187.17.163.28-.024.106-.136.155-.25.11-.113-.047-.187-.172-.164-.28.024-.108.137-.158.25-.11zm-.606-.378c.096.094.125.227.06.296-.06.07-.19.052-.284-.044-.097-.093-.123-.226-.063-.296.062-.07.192-.05.287.044zm-.431-.549c.08.107.08.233-.002.285-.08.05-.211.003-.292-.102-.08-.105-.08-.232.001-.282.082-.05.21-.005.293.1zm-.411-.546c.092.1.11.23.04.294-.068.062-.2.033-.288-.065-.093-.099-.11-.23-.042-.294.07-.062.197-.033.29.065zm-.472-.414c.11.063.171.196.134.293-.034.096-.151.125-.258.06-.11-.064-.17-.196-.135-.293.032-.1.15-.127.259-.06z"
    fill="#161514" />
</svg>
